( G-Code Modified by G-Code Ripper                        )
( by Scorch - 2013-2021 www.scorchworks.com                    )
G21   (set units to mm)
G90
(G Code)
M40
G0 Z1.000
#499 = 1.000
G0 X0.179Y0.250
G31 Z-2.000 F20.0
G0 Z1.000
G0 X16.068Y0.250
G31 Z-2.000 F20.0
G0 Z1.000
G0 X31.956Y0.250
G31 Z-2.000 F20.0
G0 Z1.000
G0 X47.845Y0.250
G31 Z-2.000 F20.0
G0 Z1.000
G0 X63.734Y0.250
G31 Z-2.000 F20.0
G0 Z1.000
G0 X0.179Y13.125
G31 Z-2.000 F20.0
G0 Z1.000
G0 X16.068Y13.125
G31 Z-2.000 F20.0
G0 Z1.000
G0 X31.956Y13.125
G31 Z-2.000 F20.0
G0 Z1.000
G0 X47.845Y13.125
G31 Z-2.000 F20.0
G0 Z1.000
G0 X63.734Y13.125
G31 Z-2.000 F20.0
G0 Z1.000
G0 X0.179Y26.000
G31 Z-2.000 F20.0
G0 Z1.000
G0 X16.068Y26.000
G31 Z-2.000 F20.0
G0 Z1.000
G0 X31.956Y26.000
G31 Z-2.000 F20.0
G0 Z1.000
G0 X47.845Y26.000
G31 Z-2.000 F20.0
G0 Z1.000
G0 X63.734Y26.000
G31 Z-2.000 F20.0
G0 Z1.000
G0 X0.179Y38.874
G31 Z-2.000 F20.0
G0 Z1.000
G0 X16.068Y38.874
G31 Z-2.000 F20.0
G0 Z1.000
G0 X31.956Y38.874
G31 Z-2.000 F20.0
G0 Z1.000
G0 X47.845Y38.874
G31 Z-2.000 F20.0
G0 Z1.000
G0 X63.734Y38.874
G31 Z-2.000 F20.0
G0 Z1.000
G0 X0.179Y51.749
G31 Z-2.000 F20.0
G0 Z1.000
G0 X16.068Y51.749
G31 Z-2.000 F20.0
G0 Z1.000
G0 X31.956Y51.749
G31 Z-2.000 F20.0
G0 Z1.000
G0 X47.845Y51.749
G31 Z-2.000 F20.0
G0 Z1.000
G0 X63.734Y51.749
G31 Z-2.000 F20.0
G0 Z1.000
G0 Z1.000
G0 X63.734Y51.749
M41
(G Code)
(G-Code Postamble)
M2
